!!!COM: Martinů, Bohuslav (Jan)
!!!OTL: [T516_Mau-w13p9m20-28]
**kern	**kern	**dynam
!!pagebreak:original
*clefG2	*clefG2	*
*k[]	*k[]	*
*C:	*C:	*
*M4/4	*M4/4	*
*	*8va	*
=1	=1	=1
!	!LO:TX:t=[quarter]=218	!
!	!LO:TX:b:t=[f]	!
4ryy	(8ggL 8bb 8ddd	.
.	8ddJ	.
8a#XL 8dd#X 8ff#X	8ryy	.
.	8anJ 8cc 8ee	.
.	8eL	.
8cc#XJ 8ff#X 8aa#X	8ryy	.
4ryy	8ggL 8bb 8ddd	.
.	8ddJ	.
=2	=2	=2
*	*X8va	*
8a#XL 8dd#X 8ff#X	8ryy	.
.	8anJ 8ccn 8ee	.
.	8eL	.
8cc#XJ 8ff#X 8aa#X	8ryy	.
2r	8dd 8gg 8bb 8ddd)	.
.	8ryy	.
.	8ee 8gg 8bb 8eee	.
.	8ryy	.
=3	=3	=3
*	*^	*
8f' 8a-X 8ccn	4.bb-X^	(8ffL	.
8r	.	8gg)	.
8f' 8b-X 8dd	.	8ee'J	.
8r	4.bb-^	(8ffL	.
8f' 8a- 8cc	.	8gg)	.
8r	.	8ee'J	.
8f' 8b- 8dd	[4bb-^	(8ffL	<
8r	.	8gg)	.
!!linebreak:original
=4	=4	=4	=4
8f' 8a-X 8cc	8bb-X^]	8ee'J	.
8r	4.bb-X^	(8ffL	.
8f' 8b-X 8dd	.	8gg)	.
8r	.	8ee'J	.
8f' 8a- 8cc	8bb-^	8ff'	[
8r	8r	8ryy	ff
8B-X^ 8b-	8bb-^ 8bbb-X	4ryy	sfz sfz
8r	8r	.	.
=5	=5	=5	=5
!	!LO:TX:b:i:t=poco	!	!
8f#X' 8an 8cc#X	4.bb^	(8ff#XL	f
8r	.	8gg#X)	.
8f#' 8bn 8dd#X	.	8ee#X'J	.
8r	4.bb^	(8ff#L	.
8f#' 8a 8cc#	.	8gg#)	<
8r	.	8ee#'J	.
8f#' 8b 8dd#	[4bb^	(8ff#L	.
8r	.	8gg#)	.
=6	=6	=6	=6
8f#X' 8a 8cc#X	8bb]	8ee#X'J	.
8r	4.bb^	(8ff#XL	.
8f#' 8b 8dd#X	.	8gg#X)	.
8r	.	8ee#'J	.
8f#' 8a 8cc#	8ff#X^ 8bb	2ryy	[
8r	8r	.	.
8f#' 8b 8dd#	8bbb'L	.	f
8r	8ggg#X'J	.	.
*	*v	*v	*
!!linebreak:original
=7	=7	=7
*M2/4	*M2/4	*
8f#X 8a 8cc#X	8ddd#XL	.
8r	8bbJ	<
4r	8gg#XL	.
.	8ff#XJ	[
=8	=8	=8
*M4/4	*M4/4	*
*	*8va	*
*	*^	*
8f#X 8a 8dd	4.ddd^	(8aL	f
8r	.	8b)	<
8e 8g 8ccn 8dd	.	8g'J	.
8r	4.ddd^	(8aL	.
8f# 8a 8dd	.	8b)	.
8r	.	8g'J	.
8e 8g 8cc 8dd	[4ddd^	(8aL	.
8r	.	8b)	[
=9	=9	=9	=9
8f#X 8a 8dd	8ddd]	8g'J	.
8r	4.ddd^	(8aL	.
8e 8g 8cc 8dd	.	8b)	.
8r	.	8g'J	.
8f# 8a 8dd	8aa^ 8ddd	2ryy	.
8r	8r	.	ff
.	(8qcccc#X/	.	sfz
4r	8ddd'^ 8dddd)	.	.
*	*X8va	*	*
.	8r	.	.
*	*v	*v	*
=	=	=
*-	*-	*-
!!!system-decoration: [({(s1,s2)})]
